dist/svgs/unicons/line/horizontal-distribution-right.svg

<svg xmlns="http://www.w3.org/2000/svg" viewBox="0 0 24 24"><path d="M19 2a1 1 0 00-1 1v1h-5a1 1 0 00-1 1v14a1 1 0 001 1h5v1a1 1 0 002 0V3a1 1 0 00-1-1zm-1 16h-4V6h4zM9 2a1 1 0 00-1 1v2H5a1 1 0 00-1 1v12a1 1 0 001 1h3v2a1 1 0 002 0V3a1 1 0 00-1-1zM8 17H6V7h2z"/></svg>

<svg xmlns="http://www.w3.org/2000/svg" viewBox="0 0 24 24"><path d="M19,2a1,1,0,0,0-1,1V4H13a1,1,0,0,0-1,1V19a1,1,0,0,0,1,1h5v1a1,1,0,0,0,2,0V3A1,1,0,0,0,19,2ZM18,18H14V6h4ZM9,2A1,1,0,0,0,8,3V5H5A1,1,0,0,0,4,6V18a1,1,0,0,0,1,1H8v2a1,1,0,0,0,2,0V3A1,1,0,0,0,9,2ZM8,17H6V7H8Z"/></svg>
